brandFactory_export/3.Masa/Flecha derecha_3Masa.svg

<?xml version="1.0" encoding="UTF-8"?>
<svg width="24px" height="24px" viewBox="0 0 24 24" version="1.1" xmlns="http://www.w3.org/2000/svg" xmlns:xlink="http://www.w3.org/1999/xlink">
    <title>3.Masa/Flecha derecha_3Masa</title>
    <g id="Symbols" stroke="none" stroke-width="1" fill="none" fill-rule="evenodd">
        <g id="3.Masa/Flecha-derecha_3Masa" fill="#5CB615" fill-rule="nonzero">
            <path d="M11.8722689,23.6268908 C11.6907563,23.6268908 11.512605,23.5932773 11.3445378,23.5260504 C10.8235294,23.3142857 10.5042017,22.8033613 10.5109244,22.1983193 L10.507563,17.8184874 C10.4941176,17.794958 10.4806723,17.7714286 10.4605042,17.7512605 L2.20168067,17.7277311 C1.46218487,17.7378151 0.917647059,17.5529412 0.541176471,17.1663866 C0.164705882,16.7798319 -0.0100840336,16.2352941 0.0100840336,15.4957983 L0.0100840336,8.2487395 C-4.51028104e-17,7.74453782 0.0470588235,7.01848739 0.534453782,6.51428036 C1.02184874,6.01008403 1.74453782,5.9394958 2.24537815,5.92941176 L2.25546218,5.92941176 L10.3092437,5.93277311 C10.3764706,5.92268908 10.4369748,5.90252101 10.497479,5.86890756 L10.487395,1.59663866 L10.487395,1.58991597 C10.4941176,0.561344538 10.9848739,0.211764706 11.2773109,0.0941176471 C11.7781513,-0.107563025 12.3563025,0.0773109244 12.8638655,0.598319328 L23.2537815,11.0521008 C23.3579832,11.1529412 23.6571429,11.4487395 23.6538096,11.8789916 C23.6538096,12.0605042 23.5932773,12.3327731 23.3243697,12.5915966 L13.1529412,23.0386555 C12.7865546,23.4218487 12.3226891,23.6268908 11.8722689,23.6268908 Z" id="Path"></path>
        </g>
    </g>
</svg>

<svg width="24" height="24" viewBox="0 0 24 24" xmlns="http://www.w3.org/2000/svg"><path d="M11.872 23.627c-.181 0-.36-.034-.527-.1-.521-.213-.84-.724-.834-1.329l-.003-4.38c-.014-.023-.027-.047-.047-.067l-8.26-.023c-.739.01-1.283-.175-1.66-.562-.376-.386-.551-.93-.53-1.67V8.249C0 7.745.046 7.019.533 6.514c.488-.504 1.21-.575 1.711-.585h.01l8.054.004a.543.543 0 00.188-.064l-.01-4.272V1.59c.007-1.029.498-1.378.79-1.496.501-.202 1.08-.017 1.587.504l10.39 10.454c.104.1.403.397.4.827 0 .182-.06.454-.33.713L13.153 23.039c-.366.383-.83.588-1.28.588z" fill="#5CB615" fill-rule="nonzero"/></svg>
